Newaita-dark/apps/48/mc.svg

<svg height="48pt" viewBox="0 0 48 48" width="48pt" xmlns="http://www.w3.org/2000/svg" xmlns:xlink="http://www.w3.org/1999/xlink"><linearGradient id="a" gradientUnits="userSpaceOnUse" x1="23.81478" x2="23.81478" y1="42.0509045" y2="44.03547050005"><stop offset="0" stop-opacity=".27451"/><stop offset="1" stop-opacity="0"/></linearGradient><linearGradient id="b"><stop offset="0" stop-opacity=".313725"/><stop offset=".222222" stop-opacity=".27451"/><stop offset="1" stop-opacity="0"/></linearGradient><radialGradient id="c" cx="450.908936" cy="189.579361" gradientTransform="matrix(.00000026 -.117199 -.210958 -.00000015 79.684395 95.392999)" gradientUnits="userSpaceOnUse" r="21.166656" xlink:href="#b"/><radialGradient id="d" cx="450.908936" cy="189.579361" gradientTransform="matrix(-.00000026 .117199 .210958 .00000015 -31.80678 -11.291218)" gradientUnits="userSpaceOnUse" r="21.166656" xlink:href="#b"/><radialGradient id="e" cx="450.908936" cy="189.579361" gradientTransform="matrix(-.00000026 -.117199 .210958 -.00000015 -31.80678 95.392999)" gradientUnits="userSpaceOnUse" r="21.166656" xlink:href="#b"/><radialGradient id="f" cx="450.908936" cy="189.579361" gradientTransform="matrix(.00000026 .117199 -.210958 .00000015 79.684393 -11.291219)" gradientUnits="userSpaceOnUse" r="21.166656" xlink:href="#b"/><linearGradient id="g" gradientUnits="userSpaceOnUse" x1="23.814786" x2="23.814786" y1="8.3132869999" y2="40.06633549995"><stop offset="0" stop-color="#42a5f5"/><stop offset="1" stop-color="#64b5f6"/></linearGradient><linearGradient id="h"><stop offset="0" stop-color="#757575"/><stop offset="1" stop-color="#616161"/></linearGradient><linearGradient id="i" gradientUnits="userSpaceOnUse" x1="23.814786" x2="23.814786" xlink:href="#h" y1="4.3441560001" y2="42.0508995"/><linearGradient id="j" gradientUnits="userSpaceOnUse" x1="23.814786" x2="23.814786" xlink:href="#h" y1="4.34415649995" y2="42.0509015"/><path d="m7.691406 42.050781h32.496094v1.984375h-32.496094zm0 0" fill="url(#a)"/><path d="m40.1875 42.050781h3.96875v-1.984375h-3.96875zm0 0" fill="url(#c)"/><path d="m7.691406 42.050781h-3.96875v1.984375h3.96875zm0 0" fill="url(#d)"/><path d="m7.691406 42.050781h-3.96875v-1.984375h3.96875zm0 0" fill="url(#e)"/><path d="m40.1875 42.050781h3.96875v1.984375h-3.96875zm0 0" fill="url(#f)"/><path d="m4.960938 8.3125h37.707031v31.753906h-37.707031zm0 0" fill="url(#g)"/><path d="m32.25 33.121094c-1.101562 0-1.984375.882812-1.984375 1.984375 0 1.097656.882813 1.984375 1.984375 1.984375.738281 0 1.378906-.398438 1.71875-.992188h3.789062l3.671876 4.132813 1.484374-1.320313-4.265624-4.796875h-4.679688c-.339844-.59375-.980469-.992187-1.71875-.992187zm0 0" fill="#fff" fill-opacity=".235294"/><path d="m22.539062 8.691406-5.160156 6.570313h-5.238281c-.34375-.597657-.984375-.996094-1.722656-.996094-1.097657 0-1.984375.886719-1.984375 1.984375 0 1.101562.886718 1.984375 1.984375 1.984375.738281 0 1.378906-.398437 1.722656-.992187h6.203125l5.753906-7.324219zm0 0" fill="#fff" fill-opacity=".235294"/><path d="m5.457031 4.34375c-.824219 0-1.488281.664062-1.488281 1.488281v34.730469c0 .824219.664062 1.488281 1.488281 1.488281h36.714844c.824219 0 1.488281-.664062 1.488281-1.488281v-34.730469c0-.824219-.664062-1.488281-1.488281-1.488281zm.496094 5.953125h35.722656v28.777344c0 .550781-.441406.992187-.992187.992187h-33.738282c-.550781 0-.992187-.441406-.992187-.992187zm0 0" fill="url(#i)"/><path d="m5.457031 4.34375c-.824219 0-1.488281.664062-1.488281 1.488281v.496094c0-.824219.664062-1.488281 1.488281-1.488281h36.714844c.824219 0 1.488281.664062 1.488281 1.488281v-.496094c0-.824219-.664062-1.488281-1.488281-1.488281zm.496094 34.730469v.496093c0 .550782.441406.992188.992187.992188h33.738282c.550781 0 .992187-.441406.992187-.992188v-.496093c0 .550781-.441406.992187-.992187.992187h-33.738282c-.550781 0-.992187-.441406-.992187-.992187zm0 0" fill="#fff" fill-opacity=".392157"/><path d="m5.953125 9.777344v.519531h35.722656v-.519531zm-1.984375 30.265625v.519531c0 .824219.664062 1.488281 1.488281 1.488281h36.714844c.824219 0 1.488281-.664062 1.488281-1.488281v-.519531c0 .824219-.664062 1.488281-1.488281 1.488281h-36.714844c-.824219 0-1.488281-.664062-1.488281-1.488281zm0 0" fill-opacity=".235294"/><path d="m22.824219 9.304688h1.984375v31.753906h-1.984375zm0 0" fill="url(#j)"/><g fill="#fff" fill-opacity=".235294"><path d="m16.867188 22.207031c-1.097657 0-1.984376.882813-1.984376 1.984375 0 .40625.121094.78125.328126 1.09375l-1.933594 3.867188h-7.324219v1.984375h3.128906l.992188 5.953125h5.074219c.34375.59375.984374.992187 1.71875.992187 1.101562 0 1.984374-.882812 1.984374-1.984375 0-1.097656-.882812-1.984375-1.984374-1.984375-.734376 0-1.375.398438-1.71875.992188h-3.394532l-.660156-3.96875h3.410156l2.484375-4.964844c1.042969-.0625 1.863281-.921875 1.863281-1.980469 0-1.101562-.882812-1.984375-1.984374-1.984375zm0 0"/><path d="m29.769531 14.265625c-1.101562 0-1.984375.886719-1.984375 1.984375 0 .855469.535156 1.582031 1.289063 1.863281l.847656 5.082031h7.171875l-1.984375 3.972657h-5.109375c-.339844-.59375-.980469-.992188-1.71875-.992188-1.101562 0-1.984375.882813-1.984375 1.984375 0 1.097656.882813 1.984375 1.984375 1.984375.738281 0 1.378906-.398437 1.71875-.992187h6.335938l2.976562-5.957032h2.363281v-1.980468h-10.074219l-.570312-3.429688c.441406-.363281.722656-.914062.722656-1.535156 0-1.097656-.886718-1.984375-1.984375-1.984375zm0 0"/></g></svg>

<?xml version="1.0" encoding="UTF-8"?>
<svg xmlns="http://www.w3.org/2000/svg" xmlns:xlink="http://www.w3.org/1999/xlink" width="48pt" height="48pt" viewBox="0 0 48 48" version="1.1">
<defs>
<linearGradient id="linear0" gradientUnits="userSpaceOnUse" x1="254" y1="233.5" x2="254" y2="254.666672" gradientTransform="matrix(0.093759,0,0,0.093759,-0.00000572259,20.158178)">
<stop offset="0" style="stop-color:rgb(0%,0%,0%);stop-opacity:0.27451;"/>
<stop offset="1" style="stop-color:rgb(0%,0%,0%);stop-opacity:0;"/>
</linearGradient>
<radialGradient id="radial0" gradientUnits="userSpaceOnUse" cx="450.908936" cy="189.579361" fx="450.908936" fy="189.579361" r="21.166656" gradientTransform="matrix(0.000000261256,-0.117199,-0.210958,-0.000000152308,79.684395,95.392999)">
<stop offset="0" style="stop-color:rgb(0%,0%,0%);stop-opacity:0.313725;"/>
<stop offset="0.222222" style="stop-color:rgb(0%,0%,0%);stop-opacity:0.27451;"/>
<stop offset="1" style="stop-color:rgb(0%,0%,0%);stop-opacity:0;"/>
</radialGradient>
<radialGradient id="radial1" gradientUnits="userSpaceOnUse" cx="450.908936" cy="189.579361" fx="450.908936" fy="189.579361" r="21.166656" gradientTransform="matrix(-0.000000261256,0.117199,0.210958,0.000000152308,-31.80678,-11.291218)">
<stop offset="0" style="stop-color:rgb(0%,0%,0%);stop-opacity:0.313725;"/>
<stop offset="0.222222" style="stop-color:rgb(0%,0%,0%);stop-opacity:0.27451;"/>
<stop offset="1" style="stop-color:rgb(0%,0%,0%);stop-opacity:0;"/>
</radialGradient>
<radialGradient id="radial2" gradientUnits="userSpaceOnUse" cx="450.908936" cy="189.579361" fx="450.908936" fy="189.579361" r="21.166656" gradientTransform="matrix(-0.000000261256,-0.117199,0.210958,-0.000000152308,-31.80678,95.392999)">
<stop offset="0" style="stop-color:rgb(0%,0%,0%);stop-opacity:0.313725;"/>
<stop offset="0.222222" style="stop-color:rgb(0%,0%,0%);stop-opacity:0.27451;"/>
<stop offset="1" style="stop-color:rgb(0%,0%,0%);stop-opacity:0;"/>
</radialGradient>
<radialGradient id="radial3" gradientUnits="userSpaceOnUse" cx="450.908936" cy="189.579361" fx="450.908936" fy="189.579361" r="21.166656" gradientTransform="matrix(0.000000261256,0.117199,-0.210958,0.000000152308,79.684393,-11.291219)">
<stop offset="0" style="stop-color:rgb(0%,0%,0%);stop-opacity:0.313725;"/>
<stop offset="0.222222" style="stop-color:rgb(0%,0%,0%);stop-opacity:0.27451;"/>
<stop offset="1" style="stop-color:rgb(0%,0%,0%);stop-opacity:0;"/>
</radialGradient>
<linearGradient id="linear1" gradientUnits="userSpaceOnUse" x1="254" y1="-126.333344" x2="254" y2="212.333328" gradientTransform="matrix(0.093759,0,0,0.093759,0,20.158175)">
<stop offset="0" style="stop-color:rgb(25.882353%,64.705882%,96.078431%);stop-opacity:1;"/>
<stop offset="1" style="stop-color:rgb(39.215686%,70.980392%,96.470588%);stop-opacity:1;"/>
</linearGradient>
<linearGradient id="linear2" gradientUnits="userSpaceOnUse" x1="254" y1="-168.666656" x2="254" y2="233.5" gradientTransform="matrix(0.093759,0,0,0.093759,0,20.158173)">
<stop offset="0" style="stop-color:rgb(45.882353%,45.882353%,45.882353%);stop-opacity:1;"/>
<stop offset="1" style="stop-color:rgb(38.039216%,38.039216%,38.039216%);stop-opacity:1;"/>
</linearGradient>
<linearGradient id="linear3" gradientUnits="userSpaceOnUse" x1="254" y1="-168.666672" x2="254" y2="233.5" gradientTransform="matrix(0.093759,0,0,0.093759,0,20.158175)">
<stop offset="0" style="stop-color:rgb(45.882353%,45.882353%,45.882353%);stop-opacity:1;"/>
<stop offset="1" style="stop-color:rgb(38.039216%,38.039216%,38.039216%);stop-opacity:1;"/>
</linearGradient>
</defs>
<g id="surface1">
<path style=" stroke:none;fill-rule:nonzero;fill:url(#linear0);" d="M 7.691406 42.050781 L 40.1875 42.050781 L 40.1875 44.035156 L 7.691406 44.035156 Z M 7.691406 42.050781 "/>
<path style=" stroke:none;fill-rule:nonzero;fill:url(#radial0);" d="M 40.1875 42.050781 L 44.15625 42.050781 L 44.15625 40.066406 L 40.1875 40.066406 Z M 40.1875 42.050781 "/>
<path style=" stroke:none;fill-rule:nonzero;fill:url(#radial1);" d="M 7.691406 42.050781 L 3.722656 42.050781 L 3.722656 44.035156 L 7.691406 44.035156 Z M 7.691406 42.050781 "/>
<path style=" stroke:none;fill-rule:nonzero;fill:url(#radial2);" d="M 7.691406 42.050781 L 3.722656 42.050781 L 3.722656 40.066406 L 7.691406 40.066406 Z M 7.691406 42.050781 "/>
<path style=" stroke:none;fill-rule:nonzero;fill:url(#radial3);" d="M 40.1875 42.050781 L 44.15625 42.050781 L 44.15625 44.035156 L 40.1875 44.035156 Z M 40.1875 42.050781 "/>
<path style=" stroke:none;fill-rule:nonzero;fill:url(#linear1);" d="M 4.960938 8.3125 L 42.667969 8.3125 L 42.667969 40.066406 L 4.960938 40.066406 Z M 4.960938 8.3125 "/>
<path style=" stroke:none;fill-rule:nonzero;fill:rgb(100%,100%,100%);fill-opacity:0.235294;" d="M 32.25 33.121094 C 31.148438 33.121094 30.265625 34.003906 30.265625 35.105469 C 30.265625 36.203125 31.148438 37.089844 32.25 37.089844 C 32.988281 37.089844 33.628906 36.691406 33.96875 36.097656 L 37.757812 36.097656 L 41.429688 40.230469 L 42.914062 38.910156 L 38.648438 34.113281 L 33.96875 34.113281 C 33.628906 33.519531 32.988281 33.121094 32.25 33.121094 Z M 32.25 33.121094 "/>
<path style=" stroke:none;fill-rule:nonzero;fill:rgb(100%,100%,100%);fill-opacity:0.235294;" d="M 22.539062 8.691406 L 17.378906 15.261719 L 12.140625 15.261719 C 11.796875 14.664062 11.15625 14.265625 10.417969 14.265625 C 9.320312 14.265625 8.433594 15.152344 8.433594 16.25 C 8.433594 17.351562 9.320312 18.234375 10.417969 18.234375 C 11.15625 18.234375 11.796875 17.835938 12.140625 17.242188 L 18.34375 17.242188 L 24.097656 9.917969 Z M 22.539062 8.691406 "/>
<path style=" stroke:none;fill-rule:nonzero;fill:url(#linear2);" d="M 5.457031 4.34375 C 4.632812 4.34375 3.96875 5.007812 3.96875 5.832031 L 3.96875 40.5625 C 3.96875 41.386719 4.632812 42.050781 5.457031 42.050781 L 42.171875 42.050781 C 42.996094 42.050781 43.660156 41.386719 43.660156 40.5625 L 43.660156 5.832031 C 43.660156 5.007812 42.996094 4.34375 42.171875 4.34375 Z M 5.953125 10.296875 L 41.675781 10.296875 L 41.675781 39.074219 C 41.675781 39.625 41.234375 40.066406 40.683594 40.066406 L 6.945312 40.066406 C 6.394531 40.066406 5.953125 39.625 5.953125 39.074219 Z M 5.953125 10.296875 "/>
<path style=" stroke:none;fill-rule:nonzero;fill:rgb(100%,100%,100%);fill-opacity:0.392157;" d="M 5.457031 4.34375 C 4.632812 4.34375 3.96875 5.007812 3.96875 5.832031 L 3.96875 6.328125 C 3.96875 5.503906 4.632812 4.839844 5.457031 4.839844 L 42.171875 4.839844 C 42.996094 4.839844 43.660156 5.503906 43.660156 6.328125 L 43.660156 5.832031 C 43.660156 5.007812 42.996094 4.34375 42.171875 4.34375 Z M 5.953125 39.074219 L 5.953125 39.570312 C 5.953125 40.121094 6.394531 40.5625 6.945312 40.5625 L 40.683594 40.5625 C 41.234375 40.5625 41.675781 40.121094 41.675781 39.570312 L 41.675781 39.074219 C 41.675781 39.625 41.234375 40.066406 40.683594 40.066406 L 6.945312 40.066406 C 6.394531 40.066406 5.953125 39.625 5.953125 39.074219 Z M 5.953125 39.074219 "/>
<path style=" stroke:none;fill-rule:nonzero;fill:rgb(0%,0%,0%);fill-opacity:0.235294;" d="M 5.953125 9.777344 L 5.953125 10.296875 L 41.675781 10.296875 L 41.675781 9.777344 Z M 3.96875 40.042969 L 3.96875 40.5625 C 3.96875 41.386719 4.632812 42.050781 5.457031 42.050781 L 42.171875 42.050781 C 42.996094 42.050781 43.660156 41.386719 43.660156 40.5625 L 43.660156 40.042969 C 43.660156 40.867188 42.996094 41.53125 42.171875 41.53125 L 5.457031 41.53125 C 4.632812 41.53125 3.96875 40.867188 3.96875 40.042969 Z M 3.96875 40.042969 "/>
<path style=" stroke:none;fill-rule:nonzero;fill:url(#linear3);" d="M 22.824219 9.304688 L 24.808594 9.304688 L 24.808594 41.058594 L 22.824219 41.058594 Z M 22.824219 9.304688 "/>
<path style=" stroke:none;fill-rule:nonzero;fill:rgb(100%,100%,100%);fill-opacity:0.235294;" d="M 16.867188 22.207031 C 15.769531 22.207031 14.882812 23.089844 14.882812 24.191406 C 14.882812 24.597656 15.003906 24.972656 15.210938 25.285156 L 13.277344 29.152344 L 5.953125 29.152344 L 5.953125 31.136719 L 9.082031 31.136719 L 10.074219 37.089844 L 15.148438 37.089844 C 15.492188 37.683594 16.132812 38.082031 16.867188 38.082031 C 17.96875 38.082031 18.851562 37.199219 18.851562 36.097656 C 18.851562 35 17.96875 34.113281 16.867188 34.113281 C 16.132812 34.113281 15.492188 34.511719 15.148438 35.105469 L 11.753906 35.105469 L 11.09375 31.136719 L 14.503906 31.136719 L 16.988281 26.171875 C 18.03125 26.109375 18.851562 25.25 18.851562 24.191406 C 18.851562 23.089844 17.96875 22.207031 16.867188 22.207031 Z M 16.867188 22.207031 "/>
<path style=" stroke:none;fill-rule:nonzero;fill:rgb(100%,100%,100%);fill-opacity:0.235294;" d="M 29.769531 14.265625 C 28.667969 14.265625 27.785156 15.152344 27.785156 16.25 C 27.785156 17.105469 28.320312 17.832031 29.074219 18.113281 L 29.921875 23.195312 L 37.09375 23.195312 L 35.109375 27.167969 L 30 27.167969 C 29.660156 26.574219 29.019531 26.175781 28.28125 26.175781 C 27.179688 26.175781 26.296875 27.058594 26.296875 28.160156 C 26.296875 29.257812 27.179688 30.144531 28.28125 30.144531 C 29.019531 30.144531 29.660156 29.746094 30 29.152344 L 36.335938 29.152344 L 39.3125 23.195312 L 41.675781 23.195312 L 41.675781 21.214844 L 31.601562 21.214844 L 31.03125 17.785156 C 31.472656 17.421875 31.753906 16.871094 31.753906 16.25 C 31.753906 15.152344 30.867188 14.265625 29.769531 14.265625 Z M 29.769531 14.265625 "/>
</g>
</svg>
